X:70
T:Man on the Wire, The
M:C|
L:1/8
B:Thompson's Compleat Collection of 200 Favourite Country Dances, vol. 1 (London, 1757)
Z:Transcribed and edited by Fynnian Titford-Mock, 2007
Z:abc's:AK/Fiddler's Companion
K:D
D/D/D FA D/D/D FA|dAfd ec (A/G/F/E/)|D/D/D FA dAfd|afge d2 D2:|
|:d/d/d fa geAg|fdaf ecAc|d/d/d fa c/c/c eg|fdec d2 D2:|

